assets/svgs/green-energy-color/GreenEnergyColor14.svg

<svg xmlns="http://www.w3.org/2000/svg" data-name="Layer 1" viewBox="0 0 128 128"><path fill="#469612" d="M71.379 92.99v24.183H56.618V92.99"/><path fill="#7ece29" d="M66.625 92.99h32.957L80.387 68.769h16.499L73.315 41.402h15.491L64 10.797 39.194 41.402h15.487l-23.57 27.367h16.502L28.418 92.99h38.207z"/><path fill="#001b01" d="M83.777 70.408h13.109a.12.12 0 00.032 0 1.64 1.64 0 001.039-2.908L76.889 43.041h11.917a.236.236 0 00.032 0 1.638 1.638 0 001.073-2.878L65.274 9.765a1.7 1.7 0 00-2.548 0L37.92 40.37a1.64 1.64 0 001.274 2.671h11.913L29.869 67.7a1.639 1.639 0 001.242 2.708h13.112l-17.09 21.564a1.639 1.639 0 001.285 2.657h26.561v22.545a1.638 1.638 0 001.639 1.639h14.76a1.638 1.638 0 001.639-1.639V94.628h26.564a1.639 1.639 0 001.286-2.657zM42.632 39.763L64 13.4l21.368 26.363H42.632zM34.685 67.13l20.747-24.089h17.132L93.312 67.13H34.685zm35.055 48.4H58.257V94.628H69.74zM31.809 91.351l16.6-20.942h31.185l16.6 20.942z"/></svg>

<svg id="Layer_1" data-name="Layer 1" xmlns="http://www.w3.org/2000/svg" viewBox="0 0 128 128"><title>Artboard 2 copy 15</title><polyline points="71.379 92.99 71.379 117.173 56.618 117.173 56.618 92.99" style="fill:#469612"/><polygon points="66.625 92.99 99.582 92.99 80.387 68.769 96.886 68.769 73.315 41.402 88.806 41.402 64 10.797 39.194 41.402 54.681 41.402 31.111 68.769 47.613 68.769 28.418 92.99 61.375 92.99 66.625 92.99" style="fill:#7ece29"/><path d="M83.777,70.408H96.886a.12.12,0,0,0,.032,0A1.64,1.64,0,0,0,97.957,67.5L76.889,43.041H88.806a.236.236,0,0,0,.032,0,1.638,1.638,0,0,0,1.073-2.878L65.274,9.765a1.7,1.7,0,0,0-2.548,0L37.92,40.37a1.64,1.64,0,0,0,1.274,2.671H51.107L29.869,67.7a1.639,1.639,0,0,0,1.242,2.708H44.223L27.133,91.972a1.639,1.639,0,0,0,1.285,2.657H54.979v22.545a1.638,1.638,0,0,0,1.639,1.639H71.378a1.638,1.638,0,0,0,1.639-1.639V94.628H99.581a1.639,1.639,0,0,0,1.286-2.657ZM42.632,39.763,64,13.4,85.368,39.763H42.632ZM34.685,67.13,55.432,43.041H72.564L93.312,67.13H34.685Zm35.055,48.4H58.257V94.628H69.74ZM31.809,91.351l16.6-20.942H79.594l16.6,20.942Z" style="fill:#001b01"/></svg>
